Newaita-dark/apps/48/com.github.bartzaalberg.alias.svg

<svg height="48pt" viewBox="0 0 48 48" width="48pt" xmlns="http://www.w3.org/2000/svg" xmlns:xlink="http://www.w3.org/1999/xlink"><linearGradient id="a"><stop offset="0" stop-opacity=".313725"/><stop offset=".222222" stop-opacity=".27451"/><stop offset="1" stop-opacity="0"/></linearGradient><radialGradient id="b" cx="450.90894" cy="189.57936" gradientTransform="matrix(.00000026 -.117199 -.210958 -.00000015 66.784728 95.392998)" gradientUnits="userSpaceOnUse" r="21.166656" xlink:href="#a"/><radialGradient id="c" cx="450.90894" cy="189.57936" gradientTransform="matrix(-.00000026 .117199 .210958 .00000015 -19.155181 -11.291222)" gradientUnits="userSpaceOnUse" r="21.166656" xlink:href="#a"/><radialGradient id="d" cx="450.90894" cy="189.57936" gradientTransform="matrix(-.00000026 -.117199 .210958 -.00000015 -19.155181 95.392998)" gradientUnits="userSpaceOnUse" r="21.166656" xlink:href="#a"/><radialGradient id="e" cx="450.90894" cy="189.57936" gradientTransform="matrix(.00000026 .117199 -.210958 .00000015 66.784725 -11.291223)" gradientUnits="userSpaceOnUse" r="21.166656" xlink:href="#a"/><linearGradient id="f" gradientTransform="matrix(.0200401 0 0 .093759 18.698079 20.158175)" gradientUnits="userSpaceOnUse" x1="255.32306" x2="255.32304" y1="233.5" y2="254.66666"><stop offset="0" stop-opacity=".27451"/><stop offset="1" stop-opacity="0"/></linearGradient><linearGradient id="g" gradientUnits="userSpaceOnUse" x1="254" x2="254" y1="-168.66667" y2="233.5"><stop offset="0" stop-color="#64b5f6"/><stop offset="1" stop-color="#42a5f5"/></linearGradient><linearGradient id="h" gradientUnits="userSpaceOnUse" x1="23.328027" x2="23.328027" y1="42.05096669922" y2="4.34417296272"><stop offset="0" stop-color="#bdbdbd"/><stop offset="1" stop-color="#e0e0e0"/></linearGradient><path d="m27.289062 42.050781h3.96875v-1.984375h-3.96875zm0 0" fill="url(#b)"/><path d="m20.339844 42.050781h-3.96875v1.984375h3.96875zm0 0" fill="url(#c)"/><path d="m20.339844 42.050781h-3.96875v-1.984375h3.96875zm0 0" fill="url(#d)"/><path d="m27.289062 42.050781h3.96875v1.984375h-3.96875zm0 0" fill="url(#e)"/><path d="m20.339844 41.554688h6.949218v2.480468h-6.949218zm0 0" fill="url(#f)"/><path d="m254.017409-168.671091c111.031064 0 201.064133 90.033069 201.064133 201.105795 0 111.031064-90.033069 201.064133-201.064133 201.064133-111.072726 0-201.105795-90.033069-201.105795-201.064133 0-111.072726 90.033069-201.105795 201.105795-201.105795zm0 0" fill="url(#g)" stroke="#333" stroke-linecap="round" stroke-width="3" transform="matrix(.093759 0 0 .093759 0 20.158175)"/><path d="m23.816406 42.050781c-10.445312 0-18.855468-8.410156-18.855468-18.851562 0-.0625 0-.125 0-.1875.101562 10.359375 8.472656 18.667969 18.855468 18.667969 10.382813 0 18.753906-8.308594 18.851563-18.667969v.1875c0 10.441406-8.410157 18.851562-18.851563 18.851562zm0 0" fill-opacity=".196078"/><path d="m23.816406 4.34375c-10.445312 0-18.855468 8.410156-18.855468 18.855469v.183593c.101562-10.359374 8.472656-18.667968 18.855468-18.667968 10.382813 0 18.753906 8.308594 18.851563 18.667968 0-.0625 0-.125 0-.183593 0-10.445313-8.410157-18.855469-18.851563-18.855469zm0 0" fill="#fff" fill-opacity=".392157"/><path d="m23.816406 4.203125c-10.523437 0-18.996094 8.472656-18.996094 18.996094 0 10.519531 8.472657 18.992187 18.996094 18.992187 10.519532 0 18.992188-8.472656 18.992188-18.992187 0-10.523438-8.472656-18.996094-18.992188-18.996094zm0 .28125c10.367188 0 18.710938 8.34375 18.710938 18.714844 0 10.367187-8.34375 18.710937-18.710938 18.710937-10.371094 0-18.714844-8.34375-18.714844-18.710937 0-10.371094 8.34375-18.714844 18.714844-18.714844zm0 0" fill="#212121"/><path d="m28.71875 11.777344c-2.835938-.003906-5.972656.050781-8.542969 2.046875-2.742187 2.132812-4.300781 6.171875-4.300781 13.320312v4.984375c-.007812.539063.277344 1.042969.742188 1.316406.46875.273438 1.046874.273438 1.511718 0 .46875-.273437.75-.777343.742188-1.316406v-4.984375c0-.878906.027344-1.695312.070312-2.449219h8.84375v7.433594c-.007812.539063.273438 1.042969.742188 1.316406.464844.273438 1.042968.273438 1.511718 0 .464844-.273437.75-.777343.742188-1.316406v-8.71875c.019531-.140625.019531-.285156 0-.429687v-9.707031c0-.824219-.671875-1.496094-1.5-1.496094-.1875 0-.375 0-.5625 0zm-.933594 3.019531v6.902344h-8.496094c.542969-3 1.566407-4.605469 2.726563-5.507813 1.421875-1.105468 3.4375-1.34375 5.769531-1.394531zm0 0" fill="url(#h)"/><path d="m28.71875 11.777344c-2.835938-.003906-5.972656.050781-8.542969 2.046875-2.742187 2.132812-4.300781 6.171875-4.300781 13.320312v.753907c0-7.148438 1.558594-11.1875 4.300781-13.320313 2.570313-1.996094 5.707031-2.046875 8.542969-2.046875h.5625c.828125 0 1.5.671875 1.5 1.496094v-.753906c0-.824219-.671875-1.496094-1.5-1.496094-.1875 0-.375 0-.5625 0zm-9.277344 9.921875c-.054687.242187-.105468.492187-.152344.753906h8.496094v-.753906zm11.339844 1.28125v.429687c.019531-.140625.019531-.285156 0-.429687zm0 0" fill="#fff"/><path d="m27.785156 14.785156c-2.332031.054688-4.347656.292969-5.769531 1.398438-1.160156.898437-2.183594 2.503906-2.726563 5.507812h.207032c.578125-2.375 1.492187-3.722656 2.519531-4.515625 1.421875-1.105469 3.4375-1.34375 5.769531-1.398437zm2.996094 9.179688v.429687c.019531-.144531.019531-.289062 0-.429687zm-11.839844.722656c-.042968.753906-.070312 1.566406-.070312 2.449219v.992187c0-.882812.027344-1.695312.070312-2.449218h8.84375v-.992188zm-3.066406 7.429688v.992187c-.007812.542969.277344 1.046875.742188 1.316406.46875.273438 1.046874.273438 1.511718 0 .46875-.269531.75-.773437.742188-1.316406v-.992187c.007812.542968-.273438 1.046874-.742188 1.316406-.464844.273437-1.042968.273437-1.511718 0-.464844-.269532-.75-.773438-.742188-1.316406zm11.910156 0v.992187c-.007812.542969.273438 1.046875.742188 1.316406.464844.273438 1.042968.273438 1.511718 0 .464844-.269531.75-.773437.742188-1.316406v-.992187c.007812.542968-.277344 1.042968-.742188 1.316406-.46875.273437-1.046874.273437-1.511718 0-.46875-.273438-.75-.773438-.742188-1.316406zm0 0" fill-opacity=".235294"/><path d="m306.304083-89.386995c-30.247112-.041663-63.70225.541615-91.116299 21.831248-29.247207 22.747828-45.87062 65.827047-45.87062 142.069766v53.16159c-.083325 5.749451 2.958051 11.123938 7.915911 14.040326 4.999523 2.916388 11.1656 2.916388 16.12346 0 4.999523-2.916388 7.999236-8.290875 7.915911-14.040326v-53.16159c0-9.374104.291639-18.081606.749928-26.122505h94.324326v79.284095c-.083325 5.749451 2.916388 11.123938 7.915911 14.040326 4.95786 2.916388 11.123938 2.916388 16.12346 0 4.95786-2.916388 7.999236-8.290875 7.915911-14.040326v-92.991119c.208314-1.499857.208314-3.041377 0-4.582896v-103.53178c0-8.790827-7.165982-15.956809-15.998472-15.956809-1.999809 0-3.999618 0-5.999427 0zm-9.957383 32.205257v73.61797h-90.616346c5.791113-31.996944 16.706738-49.120309 29.080556-58.74439 15.165218-11.790541 36.663166-14.331965 61.53579-14.87358zm0 0" fill="none" stroke="#212121" stroke-linecap="round" stroke-linejoin="round" stroke-width="3" transform="matrix(.093759 0 0 .093759 0 20.158175)"/></svg>

<?xml version="1.0" encoding="UTF-8"?>
<svg xmlns="http://www.w3.org/2000/svg" xmlns:xlink="http://www.w3.org/1999/xlink" width="48pt" height="48pt" viewBox="0 0 48 48" version="1.1">
<defs>
<radialGradient id="radial0" gradientUnits="userSpaceOnUse" cx="450.90894" cy="189.57936" fx="450.90894" fy="189.57936" r="21.166656" gradientTransform="matrix(0.000000261256,-0.117199,-0.210958,-0.000000152308,66.784728,95.392998)">
<stop offset="0" style="stop-color:rgb(0%,0%,0%);stop-opacity:0.313725;"/>
<stop offset="0.222222" style="stop-color:rgb(0%,0%,0%);stop-opacity:0.27451;"/>
<stop offset="1" style="stop-color:rgb(0%,0%,0%);stop-opacity:0;"/>
</radialGradient>
<radialGradient id="radial1" gradientUnits="userSpaceOnUse" cx="450.90894" cy="189.57936" fx="450.90894" fy="189.57936" r="21.166656" gradientTransform="matrix(-0.000000261256,0.117199,0.210958,0.000000152308,-19.155181,-11.291222)">
<stop offset="0" style="stop-color:rgb(0%,0%,0%);stop-opacity:0.313725;"/>
<stop offset="0.222222" style="stop-color:rgb(0%,0%,0%);stop-opacity:0.27451;"/>
<stop offset="1" style="stop-color:rgb(0%,0%,0%);stop-opacity:0;"/>
</radialGradient>
<radialGradient id="radial2" gradientUnits="userSpaceOnUse" cx="450.90894" cy="189.57936" fx="450.90894" fy="189.57936" r="21.166656" gradientTransform="matrix(-0.000000261256,-0.117199,0.210958,-0.000000152308,-19.155181,95.392998)">
<stop offset="0" style="stop-color:rgb(0%,0%,0%);stop-opacity:0.313725;"/>
<stop offset="0.222222" style="stop-color:rgb(0%,0%,0%);stop-opacity:0.27451;"/>
<stop offset="1" style="stop-color:rgb(0%,0%,0%);stop-opacity:0;"/>
</radialGradient>
<radialGradient id="radial3" gradientUnits="userSpaceOnUse" cx="450.90894" cy="189.57936" fx="450.90894" fy="189.57936" r="21.166656" gradientTransform="matrix(0.000000261256,0.117199,-0.210958,0.000000152308,66.784725,-11.291223)">
<stop offset="0" style="stop-color:rgb(0%,0%,0%);stop-opacity:0.313725;"/>
<stop offset="0.222222" style="stop-color:rgb(0%,0%,0%);stop-opacity:0.27451;"/>
<stop offset="1" style="stop-color:rgb(0%,0%,0%);stop-opacity:0;"/>
</radialGradient>
<linearGradient id="linear0" gradientUnits="userSpaceOnUse" x1="255.32306" y1="233.5" x2="255.32304" y2="254.66666" gradientTransform="matrix(0.0200401,0,0,0.093759,18.698079,20.158175)">
<stop offset="0" style="stop-color:rgb(0%,0%,0%);stop-opacity:0.27451;"/>
<stop offset="1" style="stop-color:rgb(0%,0%,0%);stop-opacity:0;"/>
</linearGradient>
<linearGradient id="linear1" gradientUnits="userSpaceOnUse" x1="254" y1="-168.66667" x2="254" y2="233.5" gradientTransform="matrix(1,0,0,1,0,0)">
<stop offset="0" style="stop-color:rgb(39.215686%,70.980392%,96.470588%);stop-opacity:1;"/>
<stop offset="1" style="stop-color:rgb(25.882353%,64.705882%,96.078431%);stop-opacity:1;"/>
</linearGradient>
<linearGradient id="linear2" gradientUnits="userSpaceOnUse" x1="960" y1="1695.1182" x2="960" y2="175.11813" gradientTransform="matrix(0.0248071,0,0,0.0248071,-0.486789,0.00000000000000282)">
<stop offset="0" style="stop-color:rgb(74.117647%,74.117647%,74.117647%);stop-opacity:1;"/>
<stop offset="1" style="stop-color:rgb(87.843137%,87.843137%,87.843137%);stop-opacity:1;"/>
</linearGradient>
</defs>
<g id="surface1">
<path style=" stroke:none;fill-rule:nonzero;fill:url(#radial0);" d="M 27.289062 42.050781 L 31.257812 42.050781 L 31.257812 40.066406 L 27.289062 40.066406 Z M 27.289062 42.050781 "/>
<path style=" stroke:none;fill-rule:nonzero;fill:url(#radial1);" d="M 20.339844 42.050781 L 16.371094 42.050781 L 16.371094 44.035156 L 20.339844 44.035156 Z M 20.339844 42.050781 "/>
<path style=" stroke:none;fill-rule:nonzero;fill:url(#radial2);" d="M 20.339844 42.050781 L 16.371094 42.050781 L 16.371094 40.066406 L 20.339844 40.066406 Z M 20.339844 42.050781 "/>
<path style=" stroke:none;fill-rule:nonzero;fill:url(#radial3);" d="M 27.289062 42.050781 L 31.257812 42.050781 L 31.257812 44.035156 L 27.289062 44.035156 Z M 27.289062 42.050781 "/>
<path style=" stroke:none;fill-rule:nonzero;fill:url(#linear0);" d="M 20.339844 41.554688 L 27.289062 41.554688 L 27.289062 44.035156 L 20.339844 44.035156 Z M 20.339844 41.554688 "/>
<path style="fill-rule:nonzero;fill:url(#linear1);stroke-width:3;stroke-linecap:round;stroke-linejoin:miter;stroke:rgb(20%,20%,20%);stroke-opacity:1;stroke-miterlimit:4;" d="M 254.017409 -168.671091 C 365.048473 -168.671091 455.081542 -78.638022 455.081542 32.434704 C 455.081542 143.465768 365.048473 233.498837 254.017409 233.498837 C 142.944683 233.498837 52.911614 143.465768 52.911614 32.434704 C 52.911614 -78.638022 142.944683 -168.671091 254.017409 -168.671091 Z M 254.017409 -168.671091 " transform="matrix(0.093759,0,0,0.093759,0,20.158175)"/>
<path style=" stroke:none;fill-rule:nonzero;fill:rgb(0%,0%,0%);fill-opacity:0.196078;" d="M 23.816406 42.050781 C 13.371094 42.050781 4.960938 33.640625 4.960938 23.199219 C 4.960938 23.136719 4.960938 23.074219 4.960938 23.011719 C 5.0625 33.371094 13.433594 41.679688 23.816406 41.679688 C 34.199219 41.679688 42.570312 33.371094 42.667969 23.011719 C 42.667969 23.074219 42.667969 23.136719 42.667969 23.199219 C 42.667969 33.640625 34.257812 42.050781 23.816406 42.050781 Z M 23.816406 42.050781 "/>
<path style=" stroke:none;fill-rule:nonzero;fill:rgb(100%,100%,100%);fill-opacity:0.392157;" d="M 23.816406 4.34375 C 13.371094 4.34375 4.960938 12.753906 4.960938 23.199219 C 4.960938 23.257812 4.960938 23.320312 4.960938 23.382812 C 5.0625 13.023438 13.433594 4.714844 23.816406 4.714844 C 34.199219 4.714844 42.570312 13.023438 42.667969 23.382812 C 42.667969 23.320312 42.667969 23.257812 42.667969 23.199219 C 42.667969 12.753906 34.257812 4.34375 23.816406 4.34375 Z M 23.816406 4.34375 "/>
<path style=" stroke:none;fill-rule:nonzero;fill:rgb(12.941176%,12.941176%,12.941176%);fill-opacity:1;" d="M 23.816406 4.203125 C 13.292969 4.203125 4.820312 12.675781 4.820312 23.199219 C 4.820312 33.71875 13.292969 42.191406 23.816406 42.191406 C 34.335938 42.191406 42.808594 33.71875 42.808594 23.199219 C 42.808594 12.675781 34.335938 4.203125 23.816406 4.203125 Z M 23.816406 4.484375 C 34.183594 4.484375 42.527344 12.828125 42.527344 23.199219 C 42.527344 33.566406 34.183594 41.910156 23.816406 41.910156 C 13.445312 41.910156 5.101562 33.566406 5.101562 23.199219 C 5.101562 12.828125 13.445312 4.484375 23.816406 4.484375 Z M 23.816406 4.484375 "/>
<path style=" stroke:none;fill-rule:nonzero;fill:url(#linear2);" d="M 28.71875 11.777344 C 25.882812 11.773438 22.746094 11.828125 20.175781 13.824219 C 17.433594 15.957031 15.875 19.996094 15.875 27.144531 L 15.875 32.128906 C 15.867188 32.667969 16.152344 33.171875 16.617188 33.445312 C 17.085938 33.71875 17.664062 33.71875 18.128906 33.445312 C 18.597656 33.171875 18.878906 32.667969 18.871094 32.128906 L 18.871094 27.144531 C 18.871094 26.265625 18.898438 25.449219 18.941406 24.695312 L 27.785156 24.695312 L 27.785156 32.128906 C 27.777344 32.667969 28.058594 33.171875 28.527344 33.445312 C 28.992188 33.71875 29.570312 33.71875 30.039062 33.445312 C 30.503906 33.171875 30.789062 32.667969 30.78125 32.128906 L 30.78125 23.410156 C 30.800781 23.269531 30.800781 23.125 30.78125 22.980469 L 30.78125 13.273438 C 30.78125 12.449219 30.109375 11.777344 29.28125 11.777344 C 29.09375 11.777344 28.90625 11.777344 28.71875 11.777344 Z M 27.785156 14.796875 L 27.785156 21.699219 L 19.289062 21.699219 C 19.832031 18.699219 20.855469 17.09375 22.015625 16.191406 C 23.4375 15.085938 25.453125 14.847656 27.785156 14.796875 Z M 27.785156 14.796875 "/>
<path style=" stroke:none;fill-rule:nonzero;fill:rgb(100%,100%,100%);fill-opacity:1;" d="M 28.71875 11.777344 C 25.882812 11.773438 22.746094 11.828125 20.175781 13.824219 C 17.433594 15.957031 15.875 19.996094 15.875 27.144531 L 15.875 27.898438 C 15.875 20.75 17.433594 16.710938 20.175781 14.578125 C 22.746094 12.582031 25.882812 12.53125 28.71875 12.53125 C 28.90625 12.53125 29.09375 12.53125 29.28125 12.53125 C 30.109375 12.53125 30.78125 13.203125 30.78125 14.027344 L 30.78125 13.273438 C 30.78125 12.449219 30.109375 11.777344 29.28125 11.777344 C 29.09375 11.777344 28.90625 11.777344 28.71875 11.777344 Z M 19.441406 21.699219 C 19.386719 21.941406 19.335938 22.191406 19.289062 22.453125 L 27.785156 22.453125 L 27.785156 21.699219 Z M 30.78125 22.980469 L 30.78125 23.410156 C 30.800781 23.269531 30.800781 23.125 30.78125 22.980469 Z M 30.78125 22.980469 "/>
<path style=" stroke:none;fill-rule:nonzero;fill:rgb(0%,0%,0%);fill-opacity:0.235294;" d="M 27.785156 14.785156 C 25.453125 14.839844 23.4375 15.078125 22.015625 16.183594 C 20.855469 17.082031 19.832031 18.6875 19.289062 21.691406 L 19.496094 21.691406 C 20.074219 19.316406 20.988281 17.96875 22.015625 17.175781 C 23.4375 16.070312 25.453125 15.832031 27.785156 15.777344 Z M 30.78125 23.964844 L 30.78125 24.394531 C 30.800781 24.25 30.800781 24.105469 30.78125 23.964844 Z M 18.941406 24.6875 C 18.898438 25.441406 18.871094 26.253906 18.871094 27.136719 L 18.871094 28.128906 C 18.871094 27.246094 18.898438 26.433594 18.941406 25.679688 L 27.785156 25.679688 L 27.785156 24.6875 Z M 15.875 32.117188 L 15.875 33.109375 C 15.867188 33.652344 16.152344 34.15625 16.617188 34.425781 C 17.085938 34.699219 17.664062 34.699219 18.128906 34.425781 C 18.597656 34.15625 18.878906 33.652344 18.871094 33.109375 L 18.871094 32.117188 C 18.878906 32.660156 18.597656 33.164062 18.128906 33.433594 C 17.664062 33.707031 17.085938 33.707031 16.617188 33.433594 C 16.152344 33.164062 15.867188 32.660156 15.875 32.117188 Z M 27.785156 32.117188 L 27.785156 33.109375 C 27.777344 33.652344 28.058594 34.15625 28.527344 34.425781 C 28.992188 34.699219 29.570312 34.699219 30.039062 34.425781 C 30.503906 34.15625 30.789062 33.652344 30.78125 33.109375 L 30.78125 32.117188 C 30.789062 32.660156 30.503906 33.160156 30.039062 33.433594 C 29.570312 33.707031 28.992188 33.707031 28.527344 33.433594 C 28.058594 33.160156 27.777344 32.660156 27.785156 32.117188 Z M 27.785156 32.117188 "/>
<path style="fill:none;stroke-width:3;stroke-linecap:round;stroke-linejoin:round;stroke:rgb(12.941176%,12.941176%,12.941176%);stroke-opacity:1;stroke-miterlimit:4;" d="M 306.304083 -89.386995 C 276.056971 -89.428658 242.601833 -88.84538 215.187784 -67.555747 C 185.940577 -44.807919 169.317164 -1.7287 169.317164 74.514019 L 169.317164 127.675609 C 169.233839 133.42506 172.275215 138.799547 177.233075 141.715935 C 182.232598 144.632323 188.398675 144.632323 193.356535 141.715935 C 198.356058 138.799547 201.355771 133.42506 201.272446 127.675609 L 201.272446 74.514019 C 201.272446 65.139915 201.564085 56.432413 202.022374 48.391514 L 296.3467 48.391514 L 296.3467 127.675609 C 296.263375 133.42506 299.263088 138.799547 304.262611 141.715935 C 309.220471 144.632323 315.386549 144.632323 320.386071 141.715935 C 325.343931 138.799547 328.385307 133.42506 328.301982 127.675609 L 328.301982 34.68449 C 328.510296 33.184633 328.510296 31.643113 328.301982 30.101594 L 328.301982 -73.430186 C 328.301982 -82.221013 321.136 -89.386995 312.30351 -89.386995 C 310.303701 -89.386995 308.303892 -89.386995 306.304083 -89.386995 Z M 296.3467 -57.181738 L 296.3467 16.436232 L 205.730354 16.436232 C 211.521467 -15.560712 222.437092 -32.684077 234.81091 -42.308158 C 249.976128 -54.098699 271.474076 -56.640123 296.3467 -57.181738 Z M 296.3467 -57.181738 " transform="matrix(0.093759,0,0,0.093759,0,20.158175)"/>
</g>
</svg>
